packages/ffe-icons/icons/open/400/sm/tune.svg

<svg xmlns="http://www.w3.org/2000/svg" height="20" viewBox="0 -960 960 960" width="20"><path d="M492.21-144q-15.21 0-25.71-10.35T456-180v-168q0-15.3 10.29-25.65Q476.58-384 491.79-384t25.71 10.35Q528-363.3 528-348v48h251.72q15.28 0 25.78 10.29 10.5 10.29 10.5 25.5t-10.35 25.71Q795.3-228 780-228H528v48q0 15.3-10.29 25.65Q507.42-144 492.21-144ZM180-228q-15.3 0-25.65-10.29Q144-248.58 144-263.79t10.35-25.71Q164.7-300 180-300h168q15.3 0 25.65 10.29Q384-279.42 384-264.21t-10.35 25.71Q363.3-228 348-228H180Zm144.21-132q-15.21 0-25.71-10.35T288-396v-48H180.26q-15.26 0-25.76-10.29-10.5-10.29-10.5-25.5t10.35-25.71Q164.7-516 180-516h108v-48q0-15.3 10.29-25.65Q308.58-600 323.79-600t25.71 10.35Q360-579.3 360-564v168q0 15.3-10.29 25.65Q339.42-360 324.21-360ZM468-444q-15.3 0-25.65-10.29Q432-464.58 432-479.79t10.35-25.71Q452.7-516 468-516h312q15.3 0 25.65 10.29Q816-495.42 816-480.21t-10.35 25.71Q795.3-444 780-444H468Zm144.21-132q-15.21 0-25.71-10.35T576-612v-168q0-15.3 10.29-25.65Q596.58-816 611.79-816t25.71 10.35Q648-795.3 648-780v48h132q15.3 0 25.65 10.29Q816-711.42 816-696.21t-10.35 25.71Q795.3-660 780-660H648v48q0 15.3-10.29 25.65Q627.42-576 612.21-576ZM180-660q-15.3 0-25.65-10.29Q144-680.58 144-695.79t10.35-25.71Q164.7-732 180-732h312q15.3 0 25.65 10.29Q528-711.42 528-696.21t-10.35 25.71Q507.3-660 492-660H180Z"/></svg>

<svg xmlns="http://www.w3.org/2000/svg" height="20" viewBox="0 -960 960 960" width="20"><path d="M492.211-144Q477-144 466.5-154.35 456-164.7 456-180v-168q0-15.3 10.289-25.65 10.29-10.35 25.5-10.35Q507-384 517.5-373.65 528-363.3 528-348v48h251.717Q795-300 805.5-289.711q10.5 10.29 10.5 25.5Q816-249 805.65-238.5 795.3-228 780-228H528v48q0 15.3-10.289 25.65-10.29 10.35-25.5 10.35ZM180-228q-15.3 0-25.65-10.289-10.35-10.29-10.35-25.5Q144-279 154.35-289.5 164.7-300 180-300h168q15.3 0 25.65 10.289 10.35 10.29 10.35 25.5Q384-249 373.65-238.5 363.3-228 348-228H180Zm144.211-132Q309-360 298.5-370.35 288-380.7 288-396v-48H180.263Q165-444 154.5-454.289q-10.5-10.29-10.5-25.5Q144-495 154.35-505.5 164.7-516 180-516h108v-48q0-15.3 10.289-25.65 10.29-10.35 25.5-10.35Q339-600 349.5-589.65 360-579.3 360-564v168q0 15.3-10.289 25.65-10.29 10.35-25.5 10.35ZM468-444q-15.3 0-25.65-10.289-10.35-10.29-10.35-25.5Q432-495 442.35-505.5 452.7-516 468-516h312q15.3 0 25.65 10.289 10.35 10.29 10.35 25.5Q816-465 805.65-454.5 795.3-444 780-444H468Zm144.211-132Q597-576 586.5-586.35 576-596.7 576-612v-168q0-15.3 10.289-25.65 10.29-10.35 25.5-10.35Q627-816 637.5-805.65 648-795.3 648-780v48h132q15.3 0 25.65 10.289 10.35 10.29 10.35 25.5Q816-681 805.65-670.5 795.3-660 780-660H648v48q0 15.3-10.289 25.65-10.29 10.35-25.5 10.35ZM180-660q-15.3 0-25.65-10.289-10.35-10.29-10.35-25.5Q144-711 154.35-721.5 164.7-732 180-732h312q15.3 0 25.65 10.289 10.35 10.29 10.35 25.5Q528-681 517.65-670.5 507.3-660 492-660H180Z"/></svg>
